<?xml version="1.0" encoding="UTF-8"?>
<map version="1.10" tiledversion="1.11.2" orientation="orthogonal" renderorder="right-down" width="10" height="15" tilewidth="16" tileheight="16" infinite="0" nextlayerid="5" nextobjectid="1">
 <tileset firstgid="1" source="Basic_Furniture.tsx"/>
 <tileset firstgid="55" source="Grass.tsx"/>
 <tileset firstgid="132" source="Tilled_Dirt_v2.tsx"/>
 <tileset firstgid="209" source="Wooden_House_Walls_Tilset.tsx"/>
 <tileset firstgid="224" source="Basic_Grass_Biom_things.tsx"/>
 <tileset firstgid="269" source="Fences.tsx"/>
 <tileset firstgid="285" source="Doors.tsx"/>
 <layer id="1" name="трава" width="10" height="15">
  <data encoding="csv">
125,67,67,67,67,121,67,67,67,110,
67,111,126,67,113,125,67,114,67,112,
67,115,124,122,67,121,67,122,67,67,
67,123,67,67,67,112,67,111,112,114,
67,67,67,114,124,126,67,121,111,114,
67,125,113,111,121,111,67,121,113,67,
113,126,67,124,124,112,67,115,121,67,
112,67,67,114,67,110,67,111,125,67,
67,114,121,67,111,67,67,110,112,67,
67,67,123,67,67,126,67,114,67,67,
113,67,67,67,67,67,67,67,67,67,
67,112,67,111,67,114,67,121,115,67,
67,115,110,122,67,123,125,123,67,67,
67,67,112,123,67,67,110,112,67,67,
125,67,67,67,67,67,67,122,67,67
</data>
 </layer>
 <layer id="2" name="рапинки и пол" width="10" height="15">
  <data encoding="csv">
0,146,0,0,0,0,0,254,0,0,
241,146,0,230,0,254,0,0,0,224,
0,169,166,166,166,166,139,256,0,233,
0,0,0,0,0,0,146,0,0,0,
0,215,215,215,215,215,215,215,215,0,
0,215,215,215,215,215,215,215,215,0,
0,215,215,215,215,215,215,215,215,0,
0,215,215,215,215,215,215,215,215,0,
270,215,215,215,215,215,215,215,215,272,
273,146,273,0,227,228,231,273,146,273,
273,146,273,239,236,237,232,273,146,273,
273,146,273,251,251,252,251,273,146,273,
277,146,278,283,283,283,283,280,146,277,
166,184,166,166,166,166,166,166,184,166,
0,146,249,256,258,249,256,249,146,0
</data>
 </layer>
 <layer id="3" name="кафе" width="10" height="15">
  <data encoding="csv">
0,0,0,0,0,0,0,0,0,0,
0,0,0,0,0,0,0,0,0,0,
0,0,0,0,0,0,0,0,0,0,
209,210,210,210,210,210,286,210,222,211,
214,22,0,0,0,0,48,0,31,216,
214,40,41,41,41,41,42,0,0,216,
214,0,0,0,0,0,0,0,0,216,
214,0,0,23,40,42,24,0,0,216,
219,287,220,220,222,222,220,220,288,221,
0,46,0,0,0,0,0,0,46,0,
0,0,0,0,0,0,0,0,0,0,
0,0,0,0,0,0,0,0,0,0,
0,0,0,0,0,0,0,0,0,0,
0,0,0,0,0,0,0,0,0,0,
0,0,0,0,0,0,0,0,0,0
</data>
 </layer>
 <layer id="4" name="интерьер" width="10" height="15">
  <data encoding="csv">
0,0,0,0,0,0,0,0,0,0,
0,0,0,0,0,0,0,0,0,0,
0,0,0,0,0,0,0,0,0,0,
0,0,35,0,0,3,0,0,0,0,
0,0,0,0,0,0,0,0,0,0,
0,0,0,0,0,0,0,0,0,0,
0,0,0,0,0,0,0,0,0,0,
0,0,0,0,0,0,0,0,0,0,
0,0,0,0,0,0,0,0,0,0,
0,0,0,0,0,0,0,0,0,0,
0,0,0,0,0,0,0,0,0,0,
0,0,0,0,0,0,0,0,0,0,
0,0,0,0,0,0,0,0,0,0,
0,0,0,0,0,0,0,0,0,0,
0,0,0,0,0,0,0,0,0,0
</data>
 </layer>
</map>
