<?xml version="1.0" encoding="UTF-8"?>
<map version="1.10" tiledversion="1.11.2" orientation="orthogonal" renderorder="right-down" width="10" height="15" tilewidth="16" tileheight="16" infinite="0" nextlayerid="8" nextobjectid="1">
 <tileset firstgid="1" source="Grass.tsx"/>
 <tileset firstgid="78" source="Hills.tsx"/>
 <tileset firstgid="155" source="Wooden_House_Walls_Tilset.tsx"/>
 <tileset firstgid="170" source="Basic_Grass_Biom_things.tsx"/>
 <tileset firstgid="215" source="Doors.tsx"/>
 <tileset firstgid="219" source="Fences.tsx"/>
 <tileset firstgid="235" source="Basic_Furniture.tsx"/>
 <layer id="1" name="трава" width="10" height="15">
  <data encoding="csv">
13,57,13,13,13,13,13,13,58,13,
13,60,13,13,59,13,13,61,56,13,
13,13,61,13,13,56,60,13,59,13,
13,13,61,13,13,59,57,13,13,13,
13,69,57,13,13,13,13,13,13,13,
13,13,13,13,56,13,13,59,13,13,
13,13,56,13,13,13,13,13,13,13,
71,13,68,71,13,13,13,59,13,13,
13,13,13,56,13,13,13,13,13,13,
13,13,13,13,13,13,61,13,13,13,
57,68,13,13,13,13,13,13,13,13,
13,13,71,69,13,56,13,13,67,13,
13,13,13,13,13,13,71,13,13,13,
13,61,13,13,58,13,13,67,13,13,
13,13,13,13,13,13,13,13,13,13
</data>
 </layer>
 <layer id="2" name="холм" width="10" height="15">
  <data encoding="csv">
0,0,0,0,0,0,0,0,0,0,
0,0,0,0,0,0,0,0,0,0,
0,0,0,0,0,0,0,0,0,0,
0,0,0,0,0,0,0,0,0,0,
78,79,79,79,79,79,79,79,79,80,
89,134,146,90,90,149,145,90,90,91,
89,90,90,137,133,90,90,144,90,91,
89,137,90,90,147,90,90,138,90,91,
89,146,144,147,90,145,90,90,146,91,
89,148,133,90,90,138,90,90,90,91,
89,90,135,90,149,90,137,90,144,91,
89,131,132,90,90,90,90,90,90,91,
100,142,143,101,101,101,101,101,101,102,
0,153,154,0,0,0,0,0,0,0,
0,0,0,0,0,0,0,0,0,0
</data>
 </layer>
 <layer id="3" name="пол" width="10" height="15">
  <data encoding="csv">
0,0,0,0,0,0,0,0,0,0,
0,0,0,0,0,0,0,0,0,0,
0,0,0,0,0,0,0,0,0,0,
0,0,0,0,0,0,0,0,0,0,
0,0,0,0,0,0,0,0,0,0,
0,0,161,161,161,0,0,0,0,0,
0,0,161,161,161,0,0,0,0,0,
0,0,161,161,161,0,0,0,0,0,
0,0,161,161,161,0,0,0,0,0,
0,0,0,0,0,0,0,0,0,0,
0,0,0,0,0,0,0,0,0,0,
0,0,0,0,0,0,0,0,0,0,
0,0,0,0,0,0,0,0,0,0,
0,0,0,0,0,0,0,0,0,0,
0,0,0,0,0,0,0,0,0,0
</data>
 </layer>
 <layer id="5" name="забор" width="10" height="15">
  <data encoding="csv">
0,0,0,0,0,0,0,0,0,0,
0,0,0,0,0,0,0,0,0,0,
0,0,0,0,0,0,0,0,0,0,
0,0,0,0,0,0,0,0,0,0,
0,219,0,0,0,233,233,233,222,0,
0,223,0,0,0,0,0,0,223,0,
0,223,0,0,0,0,0,0,223,0,
0,223,0,0,0,0,0,0,223,0,
0,223,0,0,0,0,0,0,223,0,
0,223,0,0,0,0,0,0,223,0,
0,227,0,232,233,233,233,233,230,0,
0,0,0,0,0,0,0,0,0,0,
0,0,0,0,0,0,0,0,0,0,
0,0,0,0,0,0,0,0,0,0,
0,0,0,0,0,0,0,0,0,0
</data>
 </layer>
 <layer id="6" name="растительность" width="10" height="15">
  <data encoding="csv">
0,0,0,0,0,0,0,0,0,0,
0,0,177,0,0,0,0,203,0,0,
0,0,193,186,0,0,0,0,177,0,
170,0,0,0,0,177,0,0,0,0,
179,0,0,0,0,0,196,0,0,0,
199,0,0,0,0,0,205,0,0,0,
0,0,0,0,0,0,0,196,0,187,
0,0,0,0,0,0,196,205,0,0,
177,0,0,0,0,0,205,0,0,0,
0,0,0,0,0,0,0,204,0,0,
0,0,0,0,0,173,174,0,0,0,
0,202,0,0,0,182,183,0,176,0,
0,0,0,0,0,0,0,0,0,0,
0,0,0,0,0,0,0,0,203,0,
0,0,0,0,178,0,0,0,192,0
</data>
 </layer>
 <layer id="4" name="дом" width="10" height="15">
  <data encoding="csv">
0,0,0,0,0,0,0,0,0,0,
0,0,0,0,0,0,0,0,0,0,
0,0,0,0,0,0,0,0,0,0,
0,0,0,0,0,0,0,0,0,0,
0,155,156,156,168,157,0,0,0,0,
0,160,0,0,0,162,0,0,0,0,
0,160,0,0,0,162,0,0,0,0,
0,160,0,0,0,162,0,0,0,0,
0,165,217,166,166,167,0,0,0,0,
0,0,0,0,0,0,0,0,0,0,
0,0,0,0,0,0,0,0,0,0,
0,0,0,0,0,0,0,0,0,0,
0,0,0,0,0,0,0,0,0,0,
0,0,0,0,0,0,0,0,0,0,
0,0,0,0,0,0,0,0,0,0
</data>
 </layer>
 <layer id="7" name="интерьер" width="10" height="15">
  <data encoding="csv">
0,0,0,0,0,0,0,0,0,0,
0,0,0,0,0,0,0,0,0,0,
0,0,0,0,0,0,0,0,0,0,
0,0,0,0,0,0,0,0,0,0,
0,0,244,269,0,0,0,0,0,0,
0,0,253,0,0,0,0,0,0,0,
0,0,0,0,259,0,0,0,0,0,
0,0,281,0,265,0,0,0,0,0,
0,0,0,0,0,0,0,0,0,0,
0,0,0,0,0,239,0,0,0,0,
0,0,0,0,0,0,0,0,0,0,
0,0,0,0,0,0,0,0,0,0,
0,0,0,0,0,0,0,0,0,0,
0,0,0,0,0,0,0,0,0,0,
0,0,0,0,0,0,0,0,0,0
</data>
 </layer>
</map>
