<?xml version="1.0" encoding="UTF-8"?>
<map version="1.10" tiledversion="1.11.2" orientation="orthogonal" renderorder="right-down" width="10" height="45" tilewidth="16" tileheight="16" infinite="0" nextlayerid="9" nextobjectid="3">
 <tileset firstgid="1" source="Grass.tsx"/>
 <tileset firstgid="78" source="Hills.tsx"/>
 <tileset firstgid="155" source="Basic_Grass_Biom_things.tsx"/>
 <tileset firstgid="200" source="Wooden_House_Walls_Tilset.tsx"/>
 <tileset firstgid="215" source="Basic_Furniture.tsx"/>
 <tileset firstgid="269" source="Doors.tsx"/>
 <tileset firstgid="273" source="Fences.tsx"/>
 <tileset firstgid="289" source="Tilled_Dirt.tsx"/>
 <layer id="1" name="Трава" width="10" height="45">
  <data encoding="csv">
72,70,68,13,57,68,72,68,71,67,
72,69,57,71,67,56,68,57,69,13,
58,72,58,57,69,67,13,69,71,71,
71,61,67,69,72,58,57,70,68,58,
57,72,68,13,56,68,72,56,71,71,
57,71,72,72,67,57,72,70,57,56,
67,68,71,72,13,13,68,70,57,70,
69,68,68,13,58,71,72,69,61,57,
71,71,56,70,57,71,70,68,68,58,
67,70,71,57,58,69,61,57,57,56,
68,70,57,58,72,13,70,72,69,68,
69,67,13,68,71,71,61,13,56,61,
57,61,67,61,58,67,61,69,70,57,
68,58,69,61,71,61,13,69,69,70,
69,72,56,72,70,71,67,70,61,13,
67,61,56,58,72,71,71,56,72,56,
69,61,57,68,13,13,69,57,68,71,
56,68,72,61,57,58,61,72,56,69,
13,72,67,13,61,58,68,61,71,70,
68,72,70,56,67,69,56,67,61,67,
56,72,72,58,58,70,71,58,56,72,
58,68,13,67,57,69,70,67,67,67,
68,57,58,71,61,71,57,67,70,67,
71,57,57,57,58,72,69,67,72,68,
72,69,13,67,69,57,71,13,72,70,
72,69,72,56,58,70,72,67,71,70,
57,72,57,67,58,69,56,61,71,69,
72,68,57,13,71,70,61,69,71,13,
72,61,72,61,61,13,72,67,69,57,
69,59,56,56,60,13,71,58,59,13,
56,56,56,56,58,58,57,58,56,56,
56,58,70,71,70,70,61,70,56,70,
69,56,61,68,71,61,61,58,58,57,
69,61,61,13,71,68,13,68,68,70,
58,70,13,58,58,70,57,61,61,58,
69,58,56,61,67,57,68,69,71,72,
56,70,69,61,58,61,69,58,56,70,
69,13,67,57,72,61,67,56,57,61,
58,61,67,58,68,70,72,56,69,68,
69,71,13,56,13,70,70,58,58,56,
69,70,72,70,71,72,56,56,56,72,
61,68,69,69,69,61,56,67,69,72,
71,71,56,57,56,13,69,70,72,71,
67,61,70,57,56,61,56,68,57,67,
68,70,71,67,67,68,58,71,58,13
</data>
 </layer>
 <layer id="2" name="Возвышенность" width="10" height="45">
  <data encoding="csv">
0,0,0,0,0,0,0,0,0,0,
0,0,0,0,0,0,0,0,0,0,
0,0,0,0,0,0,0,0,0,0,
0,0,0,0,0,0,0,0,0,0,
78,79,79,79,79,79,79,79,79,80,
89,90,0,0,90,0,0,0,0,91,
89,0,0,0,0,0,0,0,0,91,
89,0,0,0,0,0,0,0,90,91,
89,0,0,90,0,0,0,0,90,91,
89,0,0,0,0,0,0,0,0,91,
89,0,0,0,0,0,0,0,0,91,
89,131,132,0,0,0,0,0,90,91,
100,142,143,101,101,101,101,101,101,102,
0,153,154,0,0,0,0,0,0,0,
0,292,0,0,0,0,0,0,0,0,
0,303,0,0,0,0,0,0,0,0,
0,326,323,323,323,323,296,0,0,0,
0,0,0,0,0,0,303,0,0,0,
0,0,0,0,0,0,0,0,0,0,
0,0,0,0,0,0,0,0,0,0,
0,0,0,0,0,0,0,0,0,0,
0,0,0,0,0,0,0,0,0,0,
0,0,0,0,0,0,0,0,0,0,
0,0,0,0,0,0,0,0,0,0,
0,303,0,0,0,0,0,0,303,0,
0,303,0,0,0,0,0,0,303,0,
0,303,0,0,0,0,0,0,303,0,
0,303,0,0,0,0,0,0,303,0,
323,341,323,323,323,323,323,323,341,323,
0,303,0,0,0,0,0,0,303,0,
0,303,0,0,0,0,0,0,303,0,
0,303,0,0,0,0,0,0,303,0,
0,303,0,0,0,0,0,0,303,0,
0,303,0,0,0,0,0,0,303,0,
323,330,323,323,297,323,323,323,330,323,
0,0,0,0,303,0,0,0,0,0,
0,0,0,0,303,0,0,0,0,0,
0,0,0,0,303,0,0,0,0,0,
323,323,323,323,341,323,323,323,323,323,
0,0,0,0,303,0,0,0,0,0,
0,0,0,0,303,0,0,0,0,0,
0,0,0,0,303,0,0,0,0,0,
323,323,323,323,330,323,323,323,323,323,
0,0,0,0,0,0,0,0,0,0,
0,0,0,0,0,0,0,0,0,0
</data>
 </layer>
 <layer id="4" name="Пол" width="10" height="45">
  <data encoding="csv">
0,0,0,0,0,0,0,0,0,0,
0,0,0,0,0,0,0,0,0,0,
0,0,0,0,0,0,0,0,0,0,
0,0,0,0,0,0,0,0,0,0,
0,0,0,0,0,283,283,283,276,0,
0,0,206,206,206,0,0,0,277,0,
0,0,206,206,206,0,0,0,277,0,
0,0,206,206,206,0,0,0,277,0,
0,274,206,206,206,0,0,0,277,0,
0,277,0,0,0,0,0,0,277,0,
0,281,0,286,283,283,283,283,284,0,
0,0,0,0,0,0,0,0,0,0,
0,0,0,0,0,0,0,0,0,0,
0,0,0,0,0,0,0,0,0,0,
0,0,0,0,0,0,0,0,0,0,
0,0,0,0,0,0,0,0,0,0,
0,0,0,0,0,0,0,0,0,0,
0,0,0,0,0,0,0,0,0,0,
0,206,206,206,206,206,206,206,206,0,
0,206,206,206,206,206,206,206,206,0,
0,206,206,206,206,206,206,206,206,0,
0,206,206,206,206,206,206,206,206,0,
0,206,206,206,206,206,206,206,206,0,
0,206,206,206,206,206,206,206,206,0,
0,0,0,0,0,0,0,0,0,0,
0,0,0,0,0,0,0,0,0,0,
0,0,0,0,0,0,0,0,0,0,
0,0,0,0,0,0,0,0,0,0,
0,0,0,0,0,0,0,0,0,0,
0,0,0,0,0,0,0,0,0,0,
0,0,0,0,0,0,0,0,0,0,
0,0,0,0,0,0,0,0,0,0,
0,0,0,0,0,0,0,0,0,0,
0,0,0,0,0,0,0,0,0,0,
0,0,0,0,0,0,0,0,0,0,
0,0,0,0,0,0,0,0,0,0,
0,206,206,0,0,0,206,206,206,0,
0,206,206,0,0,0,206,206,206,0,
0,0,0,0,0,0,0,0,0,0,
0,0,0,0,0,0,0,0,0,0,
0,206,206,0,0,0,206,206,206,0,
0,206,206,0,0,0,206,206,206,0,
0,0,0,0,0,0,0,0,0,0,
0,0,0,0,0,0,0,0,0,0,
0,0,0,0,0,0,0,0,0,0
</data>
 </layer>
 <layer id="3" name="Растительность" width="10" height="45">
  <data encoding="csv">
0,0,0,0,0,0,0,180,0,0,
0,0,187,0,0,0,0,0,0,0,
0,178,0,0,0,0,0,172,0,0,
0,155,0,171,0,0,0,0,0,0,
0,164,0,0,0,0,0,0,0,0,
0,161,0,0,0,0,181,179,0,0,
0,0,0,0,0,0,190,181,0,0,
0,0,0,0,0,0,181,190,0,0,
0,0,0,0,0,0,190,0,0,0,
0,0,0,0,0,0,0,0,0,0,
0,0,0,0,0,161,158,159,0,172,
0,160,0,171,0,0,167,168,0,0,
0,0,0,0,0,0,0,0,0,0,
162,0,0,0,0,0,0,0,188,0,
0,0,173,0,0,188,0,0,0,0,
0,0,0,0,0,0,0,0,0,155,
0,0,0,0,0,0,0,170,0,164,
0,0,0,0,0,0,0,0,0,0,
0,0,0,0,0,0,0,0,0,0,
0,0,0,0,0,0,0,0,0,0,
0,0,0,0,0,0,0,0,0,0,
0,0,0,0,0,0,0,0,0,176,
0,0,0,0,0,0,0,0,0,0,
0,0,0,0,0,0,0,0,0,0,
0,0,0,0,158,159,162,0,0,0,
0,0,0,170,167,168,163,0,0,0,
0,0,0,182,183,182,182,0,0,0,
0,0,0,0,0,0,0,0,0,0,
0,0,0,0,0,0,0,0,0,0,
0,0,187,0,0,0,185,0,0,0,
0,0,0,0,0,0,0,0,0,0,
0,0,0,0,0,0,0,0,0,0,
0,0,0,188,0,0,0,187,0,176,
182,0,0,0,0,0,182,0,0,0,
0,0,0,0,0,0,0,0,0,0,
0,0,0,0,0,0,0,0,0,0,
0,0,0,161,0,0,0,0,0,0,
0,0,0,0,0,173,0,0,0,0,
0,0,0,0,0,0,0,0,0,0,
0,0,0,179,0,0,0,0,0,183,
0,0,0,0,0,0,0,0,0,0,
0,0,0,0,0,163,0,0,0,0,
0,0,0,0,0,0,0,0,0,0,
177,0,0,170,0,0,0,187,0,0,
0,0,180,0,0,0,0,0,0,0
</data>
 </layer>
 <layer id="5" name="Дом" width="10" height="45">
  <data encoding="csv">
0,0,0,0,0,0,0,0,0,0,
0,0,0,0,0,0,0,0,0,0,
0,0,0,0,0,0,0,0,0,0,
0,0,0,0,0,0,0,0,0,0,
0,200,201,201,213,202,0,0,0,0,
0,205,0,0,0,207,0,0,0,0,
0,205,0,0,0,207,0,0,0,0,
0,205,0,0,0,207,0,0,0,0,
0,210,270,211,211,212,0,0,0,0,
0,0,0,0,0,0,0,0,0,0,
0,0,0,0,0,0,0,0,0,0,
0,0,0,0,0,0,0,0,0,0,
0,0,0,0,0,0,0,0,0,0,
0,0,0,0,0,0,0,0,0,0,
0,0,0,0,0,0,0,0,0,0,
0,0,0,0,0,0,0,0,0,0,
0,0,0,0,0,0,0,0,0,0,
200,201,201,201,201,201,270,201,213,202,
205,0,0,0,0,0,0,0,0,207,
205,0,0,0,0,0,0,0,0,207,
205,0,0,0,0,0,0,0,0,207,
205,0,0,0,0,0,0,0,0,207,
205,0,0,0,0,0,0,0,0,207,
210,270,211,211,213,213,211,211,270,212,
273,0,277,0,0,0,0,277,0,273,
277,0,277,0,0,0,0,277,0,277,
277,0,277,0,0,0,0,277,0,277,
281,0,282,283,283,283,283,284,0,281,
0,0,0,0,0,0,0,0,0,0,
0,0,0,0,0,0,0,0,0,0,
0,0,0,0,0,0,0,0,0,0,
0,0,0,0,0,0,0,0,0,0,
0,0,0,0,0,0,0,0,0,0,
0,0,0,0,0,0,0,0,0,0,
0,0,0,0,0,0,0,0,0,0,
0,203,204,0,0,0,203,201,204,0,
0,207,205,0,0,0,207,0,205,0,
0,0,0,0,0,0,0,0,0,0,
0,0,0,0,0,0,0,0,0,0,
0,203,204,0,0,0,203,201,204,0,
0,207,205,0,0,0,207,0,205,0,
0,0,0,0,0,0,0,0,0,0,
0,0,0,0,0,0,0,0,0,0,
0,0,0,0,0,0,0,0,0,0,
0,0,0,0,0,0,0,0,0,0
</data>
 </layer>
 <layer id="6" name="Интерьер" width="10" height="45">
  <data encoding="csv">
0,0,0,0,0,0,0,0,0,0,
0,0,0,0,0,0,0,0,0,0,
0,0,0,0,0,0,0,0,0,0,
0,0,0,0,0,0,0,0,0,0,
0,0,224,249,0,0,0,0,0,0,
0,0,233,0,239,0,0,0,0,0,
0,0,0,0,245,0,0,0,0,0,
0,0,261,0,220,0,0,0,0,0,
0,0,0,0,0,0,0,0,0,0,
0,0,0,0,0,0,0,0,0,0,
0,0,0,0,0,0,0,0,0,0,
0,0,0,0,0,0,0,0,0,0,
0,0,0,0,0,0,0,0,0,0,
0,0,0,0,0,0,0,0,0,0,
0,0,0,0,0,0,0,0,0,0,
0,0,0,0,0,0,0,0,0,0,
0,0,0,0,0,0,0,0,0,0,
0,0,0,0,249,0,0,0,0,0,
0,236,0,0,0,0,261,0,0,0,
0,254,255,255,255,255,256,0,0,0,
0,0,0,0,218,0,0,0,0,0,
0,0,0,0,0,0,0,0,0,0,
0,0,0,237,254,256,238,0,0,0,
0,0,0,0,0,0,0,0,0,0,
0,261,0,0,0,0,0,0,261,0,
0,0,0,0,0,0,0,0,0,0,
0,0,0,0,0,0,0,0,0,0,
0,0,0,0,0,0,0,0,0,0,
0,0,0,0,0,0,0,0,0,0,
0,0,0,0,0,0,0,0,0,0,
0,0,0,0,0,0,0,0,0,0,
0,0,0,0,0,0,0,0,0,0,
0,0,0,0,0,0,0,0,0,0,
0,0,0,0,0,0,0,0,0,0,
0,0,0,0,0,0,0,0,0,0,
0,0,0,0,0,0,0,0,0,0,
0,0,0,0,0,0,0,0,0,0,
0,246,0,0,0,0,0,245,0,0,
0,0,0,0,0,0,0,0,0,0,
0,0,0,0,0,0,0,0,0,0,
0,0,0,0,0,0,0,0,0,0,
0,246,0,0,0,0,0,245,0,0,
0,0,0,0,0,0,0,0,0,0,
0,0,0,0,0,0,0,0,0,0,
0,0,0,0,0,0,0,0,0,0
</data>
 </layer>
</map>
