<?xml version="1.0" encoding="UTF-8"?>
<map version="1.10" tiledversion="1.11.2" orientation="orthogonal" renderorder="right-down" width="10" height="15" tilewidth="16" tileheight="16" infinite="0" nextlayerid="6" nextobjectid="1">
 <tileset firstgid="1" source="Wooden_House_Walls_Tilset.tsx"/>
 <tileset firstgid="16" source="Doors.tsx"/>
 <tileset firstgid="20" source="Basic_Furniture.tsx"/>
 <layer id="1" name="Пол" width="10" height="15">
  <data encoding="csv">
7,7,7,7,7,7,7,7,7,7,
7,7,7,7,7,7,7,7,7,7,
7,7,7,7,7,7,7,7,7,7,
7,7,7,7,7,7,7,7,7,7,
7,7,7,7,7,7,7,7,7,7,
7,7,7,7,7,7,7,7,7,7,
7,7,7,7,7,7,7,7,7,7,
7,7,7,7,7,7,7,7,7,7,
7,7,7,7,7,7,7,7,7,7,
7,7,7,7,7,7,7,7,7,7,
7,7,7,7,7,7,7,7,7,7,
7,7,7,7,7,7,7,7,7,7,
7,7,7,7,7,7,7,7,7,7,
7,7,7,7,7,7,7,7,7,7,
7,7,7,7,7,7,7,7,7,7
</data>
 </layer>
 <layer id="2" name="Стены" width="10" height="15">
  <data encoding="csv">
4,14,2,2,2,2,2,2,14,5,
8,0,41,0,0,0,0,23,0,6,
8,0,0,0,0,0,0,0,0,6,
8,0,0,0,0,0,0,0,0,6,
8,0,0,0,0,0,0,0,0,6,
8,0,0,0,0,0,0,0,0,6,
8,0,0,0,0,0,0,0,0,6,
8,0,0,0,0,0,0,0,0,6,
8,0,0,0,0,0,0,0,0,6,
8,0,0,0,0,0,0,0,0,6,
8,0,0,0,0,0,0,0,0,6,
8,0,0,0,0,0,0,0,0,6,
8,0,0,0,0,0,0,0,0,6,
8,0,0,0,0,0,0,0,0,6,
9,14,12,12,17,12,12,12,14,10
</data>
 </layer>
 <layer id="4" name="объект" width="10" height="15">
  <data encoding="csv">
0,0,0,0,0,0,0,0,0,0,
0,0,0,0,0,0,0,0,0,0,
0,0,0,0,0,0,0,0,0,0,
0,0,67,0,0,0,67,0,0,0,
0,0,59,61,0,0,59,61,0,0,
0,0,0,0,0,0,0,0,0,0,
0,0,0,0,0,0,0,0,0,0,
0,0,67,0,0,0,67,0,0,0,
0,0,59,61,0,0,59,61,0,0,
0,0,0,0,0,0,0,0,0,0,
0,0,0,0,0,0,0,0,0,0,
0,0,0,0,0,0,0,0,0,0,
0,0,0,0,0,0,0,0,0,0,
0,0,0,0,0,0,0,0,0,0,
0,0,0,0,0,0,0,0,0,0
</data>
 </layer>
 <layer id="5" name="объекты2" width="10" height="15">
  <data encoding="csv">
0,0,0,0,54,0,0,0,0,0,
0,0,0,0,0,0,0,41,0,0,
0,0,0,0,0,0,0,0,0,0,
0,0,44,0,0,0,44,0,0,0,
0,32,0,0,0,0,0,0,33,0,
0,0,0,0,0,0,0,0,0,0,
0,0,0,0,0,0,0,0,0,0,
0,0,44,0,0,0,44,0,0,0,
0,32,0,0,0,0,0,0,34,0,
0,0,0,0,0,0,0,0,0,0,
0,0,0,0,0,0,0,0,0,0,
0,0,0,0,0,0,0,0,0,0,
0,0,0,0,0,0,59,60,61,0,
0,0,0,0,67,0,0,0,0,0,
0,0,0,0,0,0,0,0,0,0
</data>
 </layer>
</map>
